assets/svg/icon_block_rocket.svg

<svg width="34" height="34" viewBox="0 0 34 34" fill="none" xmlns="http://www.w3.org/2000/svg">
<g clip-path="url(#clip0_35094_102601)">
<path d="M17 34C3.49623 34 0 30.5055 0 17C0 3.49451 3.49623 0 17 0C30.5038 0 34 3.49451 34 17C34 30.5055 30.5038 34 17 34Z" fill="#0166FF"/>
<path d="M17 30C6.67359 30 4 27.3277 4 17C4 6.67227 6.67359 4 17 4C27.3264 4 30 6.67227 30 17C30 27.3277 27.3264 30 17 30Z" fill="white"/>
<g clip-path="url(#clip1_35094_102601)">
<path fill-rule="evenodd" clip-rule="evenodd" d="M24.8091 9C23.479 8.99987 22.1622 9.26514 20.9358 9.78027C19.7094 10.2954 18.5982 11.05 17.6671 12H15.7511C15.0218 12 14.3223 12.2897 13.8066 12.8055C13.2909 13.3212 13.0011 14.0207 13.0011 14.75V17H15.0011L17.0011 19V21H19.2511C19.9805 21 20.6799 20.7103 21.1957 20.1945C21.7114 19.6788 22.0011 18.9793 22.0011 18.25V16.334C22.9511 15.403 23.7058 14.2917 24.2209 13.0654C24.7361 11.839 25.0013 10.5222 25.0011 9.192V9H24.8091ZM15.4411 15.5C15.7031 14.7973 16.0436 14.1263 16.4561 13.5H15.7511C15.0611 13.5 14.5011 14.06 14.5011 14.75V15.5H15.4411ZM18.5011 19.5V18.56C19.2039 18.298 19.8748 17.9575 20.5011 17.545V18.25C20.5011 18.94 19.9411 19.5 19.2511 19.5H18.5011ZM23.3811 10.62C21.822 10.8861 20.368 11.5819 19.1826 12.6292C17.9972 13.6764 17.1274 15.0335 16.6711 16.548L17.4531 17.331C18.9676 16.8747 20.3247 16.0049 21.372 14.8196C22.4192 13.6342 23.115 12.1802 23.3811 10.621V10.62ZM11.7811 19.28C11.8548 19.2113 11.9139 19.1285 11.9549 19.0365C11.9959 18.9445 12.0179 18.8452 12.0197 18.7445C12.0215 18.6438 12.003 18.5438 11.9653 18.4504C11.9275 18.357 11.8714 18.2722 11.8002 18.201C11.7289 18.1297 11.6441 18.0736 11.5507 18.0359C11.4573 17.9982 11.3573 17.9796 11.2566 17.9814C11.1559 17.9832 11.0566 18.0052 10.9646 18.0462C10.8726 18.0872 10.7898 18.1463 10.7211 18.22L9.22113 19.72C9.14744 19.7887 9.08834 19.8715 9.04735 19.9635C9.00636 20.0555 8.98432 20.1548 8.98254 20.2555C8.98076 20.3562 8.99929 20.4562 9.03701 20.5496C9.07473 20.643 9.13087 20.7278 9.20209 20.799C9.27331 20.8703 9.35814 20.9264 9.45153 20.9641C9.54492 21.0018 9.64495 21.0204 9.74565 21.0186C9.84636 21.0168 9.94567 20.9948 10.0377 20.9538C10.1297 20.9128 10.2125 20.8537 10.2811 20.78L11.7811 19.28ZM14.7811 20.28C14.8548 20.2113 14.9139 20.1285 14.9549 20.0365C14.9959 19.9445 15.0179 19.8452 15.0197 19.7445C15.0215 19.6438 15.003 19.5438 14.9653 19.4504C14.9275 19.357 14.8714 19.2722 14.8002 19.201C14.7289 19.1297 14.6441 19.0736 14.5507 19.0359C14.4573 18.9982 14.3573 18.9796 14.2566 18.9814C14.1559 18.9832 14.0566 19.0052 13.9646 19.0462C13.8726 19.0872 13.7898 19.1463 13.7211 19.22L9.22113 23.72C9.14744 23.7887 9.08834 23.8715 9.04735 23.9635C9.00636 24.0555 8.98432 24.1548 8.98254 24.2555C8.98076 24.3562 8.99929 24.4562 9.03701 24.5496C9.07473 24.643 9.13087 24.7278 9.20209 24.799C9.27331 24.8703 9.35814 24.9264 9.45153 24.9641C9.54492 25.0018 9.64495 25.0204 9.74565 25.0186C9.84636 25.0168 9.94567 24.9948 10.0377 24.9538C10.1297 24.9128 10.2125 24.8537 10.2811 24.78L14.7811 20.28ZM15.7811 22.22C15.9216 22.3606 16.0005 22.5512 16.0005 22.75C16.0005 22.9488 15.9216 23.1394 15.7811 23.28L14.2811 24.78C14.139 24.9125 13.9509 24.9846 13.7566 24.9812C13.5623 24.9777 13.3769 24.899 13.2395 24.7616C13.1021 24.6242 13.0234 24.4388 13.02 24.2445C13.0165 24.0502 13.0886 23.8622 13.2211 23.72L14.7211 22.22C14.8618 22.0795 15.0524 22.0007 15.2511 22.0007C15.4499 22.0007 15.6405 22.0795 15.7811 22.22Z" fill="#0166FF"/>
</g>
</g>
<defs>
<clipPath id="clip0_35094_102601">
<rect width="34" height="34" fill="white"/>
</clipPath>
<clipPath id="clip1_35094_102601">
<rect width="16" height="16" fill="white" transform="translate(9 9)"/>
</clipPath>
</defs>
</svg>

<svg xmlns="http://www.w3.org/2000/svg" width="34" height="34" fill="none"><g clip-path="url(#a)"><path fill="#0166FF" d="M17 34C3.496 34 0 30.506 0 17S3.496 0 17 0s17 3.495 17 17c0 13.506-3.496 17-17 17"/><path fill="#fff" d="M17 30C6.674 30 4 27.328 4 17S6.674 4 17 4s13 2.672 13 13-2.674 13-13 13"/><g clip-path="url(#b)"><path fill="#0166FF" fill-rule="evenodd" d="M24.81 9a10 10 0 0 0-7.143 3h-1.916a2.75 2.75 0 0 0-2.75 2.75V17h2l2 2v2h2.25a2.75 2.75 0 0 0 2.75-2.75v-1.916a10 10 0 0 0 3-7.142V9zm-9.369 6.5a10 10 0 0 1 1.015-2h-.705c-.69 0-1.25.56-1.25 1.25v.75zm3.06 4v-.94a10 10 0 0 0 2-1.015v.705c0 .69-.56 1.25-1.25 1.25zm4.88-8.88a8.5 8.5 0 0 0-6.71 5.928l.782.783a8.5 8.5 0 0 0 5.928-6.71zm-11.6 8.66a.75.75 0 1 0-1.06-1.06l-1.5 1.5a.75.75 0 1 0 1.06 1.06zm3 1a.75.75 0 1 0-1.06-1.06l-4.5 4.5a.75.75 0 1 0 1.06 1.06zm1 1.94a.75.75 0 0 1 0 1.06l-1.5 1.5a.75.75 0 0 1-1.06-1.06l1.5-1.5a.75.75 0 0 1 1.06 0" clip-rule="evenodd"/></g></g><defs><clipPath id="a"><path fill="#fff" d="M0 0h34v34H0z"/></clipPath><clipPath id="b"><path fill="#fff" d="M9 9h16v16H9z"/></clipPath></defs></svg>
